assets/elartedeconectarlospuntos/Matriz de pagos de México.svg

<?xml version="1.0" encoding="UTF-8" standalone="no"?>
<svg
   width="1581"
   height="1581"
   viewBox="0 0 1581 1581"
   xml:space="preserve"
   overflow="hidden"
   version="1.1"
   id="svg39"
   sodipodi:docname="Matriz de pagos de México.svg"
   inkscape:version="1.4.3 (0d15f75, 2025-12-25)"
   xmlns:inkscape="http://www.inkscape.org/namespaces/inkscape"
   xmlns:sodipodi="http://sodipodi.sourceforge.net/DTD/sodipodi-0.dtd"
   xmlns="http://www.w3.org/2000/svg"
   xmlns:svg="http://www.w3.org/2000/svg"><sodipodi:namedview
     id="namedview39"
     pagecolor="#ffffff"
     bordercolor="#000000"
     borderopacity="0.25"
     inkscape:showpageshadow="2"
     inkscape:pageopacity="0.0"
     inkscape:pagecheckerboard="0"
     inkscape:deskcolor="#d1d1d1"
     inkscape:zoom="0.50029257"
     inkscape:cx="724.57602"
     inkscape:cy="842.50702"
     inkscape:window-width="1920"
     inkscape:window-height="1057"
     inkscape:window-x="-8"
     inkscape:window-y="-8"
     inkscape:window-maximized="1"
     inkscape:current-layer="svg39" /><defs
     id="defs1"><style
       id="style1">@import url('https://fonts.cdnfonts.com/css/cmu-serif'); text { font-family: 'CMU Serif', serif !important; }</style></defs><g
     transform="translate(-701,-551)"
     id="g39"><path
       d="M 701.572,551.991 H 1017.56 V 867.979 H 701.572 Z"
       fill-rule="evenodd"
       id="path1" /><path
       d="m 1017.56,551.991 h 315.99 v 315.988 h -315.99 z"
       fill-rule="evenodd"
       id="path2" /><path
       d="m 1333.55,551.991 h 315.99 v 315.988 h -315.99 z"
       fill-rule="evenodd"
       id="path3" /><path
       d="m 1649.54,551.991 h 315.98 v 315.988 h -315.98 z"
       fill-rule="evenodd"
       id="path4" /><path
       d="m 1965.52,551.991 h 315.99 v 315.988 h -315.99 z"
       fill-rule="evenodd"
       id="path5" /><path
       d="M 701.572,867.979 H 1017.56 V 1183.97 H 701.572 Z"
       fill-rule="evenodd"
       id="path6" /><path
       d="m 1017.56,867.979 h 631.98 v 631.971 h -631.98 z"
       fill="#262626"
       fill-rule="evenodd"
       id="path7" /><path
       d="m 1649.54,867.979 h 315.98 v 631.971 h -315.98 z"
       fill="#404040"
       fill-rule="evenodd"
       id="path8" /><path
       d="m 1965.52,867.979 h 315.99 v 947.961 h -315.99 z"
       fill="#595959"
       fill-rule="evenodd"
       id="path9" /><path
       d="m 701.572,1183.97 h 315.988 v 315.98 H 701.572 Z"
       fill-rule="evenodd"
       id="path10" /><path
       d="m 701.572,1499.95 h 315.988 v 315.99 H 701.572 Z"
       fill-rule="evenodd"
       id="path11" /><path
       d="m 1017.56,1499.95 h 947.96 v 315.99 h -947.96 z"
       fill="#404040"
       fill-rule="evenodd"
       id="path12" /><path
       d="m 701.572,1815.94 h 315.988 v 315.99 H 701.572 Z"
       fill-rule="evenodd"
       id="path13" /><path
       d="m 1017.56,1815.94 h 1263.95 v 315.99 H 1017.56 Z"
       fill="#595959"
       fill-rule="evenodd"
       id="path14" /><text
       fill="#ffffff"
       font-family="CMU Serif,CMU Serif_MSFontService,sans-serif"
       font-weight="700"
       font-size="124px"
       transform="translate(2067.66,748)"
       id="text14">K</text><text
       fill="#ffffff"
       font-family="CMU Serif,CMU Serif_MSFontService,sans-serif"
       font-weight="700"
       font-size="124px"
       transform="translate(1751.96,748)"
       id="text15">H</text><text
       fill="#ffffff"
       font-family="CMU Serif,CMU Serif_MSFontService,sans-serif"
       font-weight="700"
       font-size="124px"
       transform="translate(1436.83,748)"
       id="text16">D</text><text
       fill="#ffffff"
       font-family="CMU Serif,CMU Serif_MSFontService,sans-serif"
       font-weight="700"
       font-size="124px"
       transform="translate(1124.28,748)"
       id="text17">C</text><g
       id="g18"><text
         fill="#ffffff"
         font-family="CMU Serif,CMU Serif_MSFontService,sans-serif"
         font-style="italic"
         font-weight="400"
         font-size="73px"
         transform="translate(1057.09,1121)"
         id="text18">Predispuesta a la </text></g><text
       fill="#ffffff"
       font-family="CMU Serif,CMU Serif_MSFontService,sans-serif"
       font-style="italic"
       font-weight="700"
       font-size="73px"
       transform="translate(1083.72,1207)"
       id="text19">no</text><text
       fill="#ffffff"
       font-family="CMU Serif,CMU Serif_MSFontService,sans-serif"
       font-style="italic"
       font-weight="400"
       font-size="73px"
       transform="translate(1201.17,1207)"
       id="text20">cooperación</text><path
       d="m 1271.9,1251.27 c 1.31,0 1.97,0.53 1.97,1.59 0,0.29 -0.1,0.72 -0.3,1.29 l -2.83,11.36 h 5.94 c 0.5,0 0.84,0.01 1.04,0.03 0.2,0.03 0.38,0.1 0.56,0.22 0.17,0.12 0.26,0.33 0.26,0.62 0,0.63 -0.16,1.02 -0.48,1.17 -0.32,0.15 -0.85,0.22 -1.59,0.22 h -6.29 l -5.29,21.2 c -0.29,1.45 -0.44,2.76 -0.44,3.95 0,2.12 0.65,3.17 1.96,3.17 1.84,0 3.47,-0.92 4.9,-2.75 1.43,-1.84 2.58,-3.89 3.45,-6.16 0.29,-0.68 0.49,-1.08 0.61,-1.2 0.13,-0.12 0.4,-0.18 0.84,-0.18 0.72,0 1.09,0.24 1.09,0.73 0,0.15 -0.15,0.58 -0.44,1.31 -0.29,0.73 -0.75,1.67 -1.39,2.81 -0.63,1.15 -1.36,2.24 -2.19,3.29 -0.82,1.05 -1.87,1.95 -3.14,2.7 -1.26,0.75 -2.58,1.13 -3.94,1.13 -1.85,0 -3.34,-0.64 -4.49,-1.91 -1.14,-1.28 -1.71,-2.85 -1.71,-4.72 0,-0.66 0.12,-1.47 0.36,-2.42 l 5.23,-20.95 h -5.76 c -0.48,0 -0.82,-0.01 -1.01,-0.04 -0.19,-0.02 -0.37,-0.1 -0.54,-0.22 -0.17,-0.12 -0.25,-0.33 -0.25,-0.62 0,-0.63 0.15,-1.02 0.46,-1.17 0.31,-0.14 0.83,-0.21 1.55,-0.21 h 6.11 l 2.9,-11.61 c 0.49,-1.75 1.43,-2.63 2.85,-2.63 z"
       fill="#ffffff"
       fill-rule="evenodd"
       id="path20" /><text
       fill="#000000"
       fill-opacity="0"
       font-family="Arial,Arial_MSFontService,sans-serif"
       font-size="46.501px"
       x="1258.03"
       y="1291.96"
       id="text21">t</text><path
       d="m 1320.01,1258.35 c 0.16,0 0.54,0.15 1.16,0.44 l 32.12,18.25 c 1.14,0.73 1.72,1.29 1.72,1.68 0,0.39 -0.63,0.9 -1.9,1.53 l -40.62,18.03 c -1.33,0.54 -2.07,0.81 -2.23,0.81 -0.59,0 -0.88,-0.25 -0.88,-0.73 0,-0.44 0.54,-0.86 1.61,-1.25 0.17,-0.07 0.31,-0.13 0.4,-0.17 l 36.81,-16.34 c 0.35,-0.16 0.81,-0.36 1.36,-0.61 0.56,-0.24 1.09,-0.48 1.6,-0.71 0.51,-0.22 0.99,-0.44 1.44,-0.63 v -0.08 c -0.49,-0.25 -2.16,-1.19 -5.01,-2.84 l -27.11,-15.41 c -0.83,-0.44 -1.24,-0.87 -1.24,-1.31 0,-0.44 0.25,-0.66 0.77,-0.66 z"
       fill="#ffffff"
       fill-rule="evenodd"
       id="path21" /><text
       fill="#000000"
       fill-opacity="0"
       font-family="Arial,Arial_MSFontService,sans-serif"
       font-size="40.7339px"
       x="1309.38"
       y="1293.99"
       id="text22">&gt;</text><path
       d="m 1398.45,1264.7 c 1.36,0 2.62,0.43 3.76,1.29 1.14,0.86 1.91,2.19 2.3,4 2.53,-3.52 5.47,-5.29 8.83,-5.29 1.74,0 3.39,0.36 4.96,1.07 1.56,0.71 2.34,1.9 2.34,3.57 0,1.25 -0.4,2.21 -1.19,2.86 -0.8,0.65 -1.62,0.97 -2.47,0.97 -0.9,0 -1.56,-0.24 -1.98,-0.72 -0.42,-0.48 -0.64,-1.01 -0.64,-1.59 0,-0.24 0.05,-0.54 0.15,-0.9 0.1,-0.36 0.38,-0.82 0.83,-1.38 0.44,-0.55 1.07,-0.95 1.86,-1.19 -0.99,-0.67 -2.3,-1.01 -3.93,-1.01 -1.17,0 -2.3,0.31 -3.4,0.94 -1.09,0.63 -1.99,1.33 -2.7,2.11 -0.7,0.79 -1.35,1.67 -1.93,2.66 -0.58,0.98 -0.97,1.7 -1.17,2.14 -0.19,0.45 -0.34,0.79 -0.44,1.01 l -4.74,19.28 c -0.44,2.17 -1.39,3.25 -2.85,3.25 -0.68,0 -1.19,-0.19 -1.53,-0.58 -0.34,-0.39 -0.51,-0.83 -0.51,-1.32 0,-0.24 0.07,-0.58 0.22,-1.02 l 5.47,-21.9 c 0.34,-1.35 0.51,-2.57 0.51,-3.68 0,-1.93 -0.63,-2.89 -1.9,-2.89 -1.07,0 -1.98,0.73 -2.73,2.18 -0.76,1.45 -1.5,3.6 -2.23,6.45 -0.19,0.77 -0.35,1.24 -0.47,1.41 -0.13,0.17 -0.43,0.25 -0.92,0.25 -0.73,0 -1.09,-0.24 -1.09,-0.73 0,-0.09 0.1,-0.52 0.29,-1.27 0.19,-0.76 0.49,-1.74 0.88,-2.96 0.39,-1.22 0.77,-2.26 1.16,-3.14 1.37,-2.58 3.12,-3.87 5.26,-3.87 z"
       fill="#ffffff"
       fill-rule="evenodd"
       id="path22" /><text
       fill="#000000"
       fill-opacity="0"
       font-family="Arial,Arial_MSFontService,sans-serif"
       font-size="33.069px"
       x="1390.86"
       y="1293.64"
       id="text23">r</text><text
       fill="#ffffff"
       font-family="CMU Serif,CMU Serif_MSFontService,sans-serif"
       font-weight="700"
       font-size="124px"
       transform="translate(808.289,1064)"
       id="text24">C</text><text
       fill="#ffffff"
       font-family="CMU Serif,CMU Serif_MSFontService,sans-serif"
       font-weight="700"
       font-size="124px"
       transform="translate(804.852,1380)"
       id="text25">D</text><text
       fill="#ffffff"
       font-family="CMU Serif,CMU Serif_MSFontService,sans-serif"
       font-style="italic"
       font-weight="400"
       font-size="73px"
       transform="translate(1119.24,1639)"
       id="text26">Bajo estado de derecho </text><text
       fill="#ffffff"
       font-family="Latin Modern Math,Latin Modern Math_MSFontService,sans-serif"
       font-style="oblique"
       font-weight="700"
       font-size="73px"
       transform="translate(1400.79,1727)"
       id="text27">c</text><text
       fill="#ffffff"
       font-family="Cambria Math,Cambria Math_MSFontService,sans-serif"
       font-weight="400"
       font-size="73px"
       transform="translate(1455.54,1727)"
       id="text28">≫</text><text
       fill="#ffffff"
       font-family="Cambria Math,Cambria Math_MSFontService,sans-serif"
       font-weight="400"
       font-size="73px"
       transform="translate(1541.23,1727)"
       id="text29">0</text><text
       fill="#ffffff"
       font-family="CMU Serif,CMU Serif_MSFontService,sans-serif"
       font-weight="700"
       font-size="124px"
       transform="translate(803.993,1696)"
       id="text30">H</text><text
       fill="#ffffff"
       font-family="CMU Serif,CMU Serif_MSFontService,sans-serif"
       font-style="italic"
       font-weight="400"
       font-size="64px"
       transform="translate(1100.68,1958)"
       id="text31">Bajos</text><text
       fill="#ffffff"
       font-family="CMU Serif,CMU Serif_MSFontService,sans-serif"
       font-style="italic"
       font-weight="400"
       font-size="64px"
       transform="translate(1280,1958)"
       id="text32">c</text><text
       fill="#ffffff"
       font-family="CMU Serif,CMU Serif_MSFontService,sans-serif"
       font-style="italic"
       font-weight="400"
       font-size="64px"
       transform="translate(1309.8,1958)"
       id="text33">astigos para personas corruptas </text><text
       fill="#ffffff"
       font-family="CMU Serif,CMU Serif_MSFontService,sans-serif"
       font-style="italic"
       font-weight="700"
       font-size="64px"
       transform="translate(1562.73,2032)"
       id="text34">p</text><text
       fill="#ffffff"
       font-family="CMU Serif,CMU Serif_MSFontService,sans-serif"
       font-style="italic"
       font-weight="700"
       font-size="64px"
       transform="translate(1601.11,2032)"
       id="text35"> </text><text
       fill="#ffffff"
       font-family="Latin Modern Math,Latin Modern Math_MSFontService,sans-serif"
       font-style="oblique"
       font-weight="700"
       font-size="64px"
       transform="translate(1627.47,2032)"
       id="text36">&gt;</text><text
       fill="#ffffff"
       font-family="Latin Modern Math,Latin Modern Math_MSFontService,sans-serif"
       font-style="oblique"
       font-weight="700"
       font-size="64px"
       transform="translate(1679.03,2032)"
       id="text37"> </text><text
       fill="#ffffff"
       font-family="CMU Serif,CMU Serif_MSFontService,sans-serif"
       font-style="italic"
       font-weight="700"
       font-size="64px"
       transform="translate(1701.95,2032)"
       id="text38">q</text><text
       fill="#ffffff"
       font-family="CMU Serif,CMU Serif_MSFontService,sans-serif"
       font-weight="700"
       font-size="124px"
       transform="translate(803.706,2012)"
       id="text39">K</text></g></svg>

<svg width="1581" height="1709" viewBox="0 0 1581 1709" xmlns="http://www.w3.org/2000/svg" xmlns:xlink="http://www.w3.org/1999/xlink" xml:space="preserve" overflow="hidden"><defs><style>@import url('https://fonts.cdnfonts.com/css/cmu-serif'); text { font-family: 'CMU Serif', serif !important; }</style></defs><g transform="translate(-701 -551)"><path d="M701.572 551.991 1017.56 551.991 1017.56 867.979 701.572 867.979Z" fill-rule="evenodd"/><path d="M1017.56 551.991 1333.55 551.991 1333.55 867.979 1017.56 867.979Z" fill-rule="evenodd"/><path d="M1333.55 551.991 1649.54 551.991 1649.54 867.979 1333.55 867.979Z" fill-rule="evenodd"/><path d="M1649.54 551.991 1965.52 551.991 1965.52 867.979 1649.54 867.979Z" fill-rule="evenodd"/><path d="M1965.52 551.991 2281.51 551.991 2281.51 867.979 1965.52 867.979Z" fill-rule="evenodd"/><path d="M701.572 867.979 1017.56 867.979 1017.56 1183.97 701.572 1183.97Z" fill-rule="evenodd"/><path d="M1017.56 867.979 1649.54 867.979 1649.54 1499.95 1017.56 1499.95Z" fill="#262626" fill-rule="evenodd"/><path d="M1649.54 867.979 1965.52 867.979 1965.52 1499.95 1649.54 1499.95Z" fill="#404040" fill-rule="evenodd"/><path d="M1965.52 867.979 2281.51 867.979 2281.51 1815.94 1965.52 1815.94Z" fill="#595959" fill-rule="evenodd"/><path d="M701.572 1183.97 1017.56 1183.97 1017.56 1499.95 701.572 1499.95Z" fill-rule="evenodd"/><path d="M701.572 1499.95 1017.56 1499.95 1017.56 1815.94 701.572 1815.94Z" fill-rule="evenodd"/><path d="M1017.56 1499.95 1965.52 1499.95 1965.52 1815.94 1017.56 1815.94Z" fill="#404040" fill-rule="evenodd"/><path d="M701.572 1815.94 1017.56 1815.94 1017.56 2131.93 701.572 2131.93Z" fill-rule="evenodd"/><path d="M1017.56 1815.94 2281.51 1815.94 2281.51 2131.93 1017.56 2131.93Z" fill="#595959" fill-rule="evenodd"/><text fill="#FFFFFF" font-family="CMU Serif,CMU Serif_MSFontService,sans-serif" font-weight="700" font-size="124" transform="matrix(1 0 0 1 2067.66 748)">K</text><text fill="#FFFFFF" font-family="CMU Serif,CMU Serif_MSFontService,sans-serif" font-weight="700" font-size="124" transform="matrix(1 0 0 1 1751.96 748)">H</text><text fill="#FFFFFF" font-family="CMU Serif,CMU Serif_MSFontService,sans-serif" font-weight="700" font-size="124" transform="matrix(1 0 0 1 1436.83 748)">D</text><text fill="#FFFFFF" font-family="CMU Serif,CMU Serif_MSFontService,sans-serif" font-weight="700" font-size="124" transform="matrix(1 0 0 1 1124.28 748)">C</text><g><text fill="#FFFFFF" font-family="CMU Serif,CMU Serif_MSFontService,sans-serif" font-style="italic" font-weight="400" font-size="73" transform="matrix(1 0 0 1 1057.09 1121)">Predispuesta a la </text></g><text fill="#FFFFFF" font-family="CMU Serif,CMU Serif_MSFontService,sans-serif" font-style="italic" font-weight="700" font-size="73" transform="matrix(1 0 0 1 1083.72 1207)">no</text><text fill="#FFFFFF" font-family="CMU Serif,CMU Serif_MSFontService,sans-serif" font-style="italic" font-weight="400" font-size="73" transform="matrix(1 0 0 1 1201.17 1207)">cooperación</text><path d="M1271.9 1251.27C1273.21 1251.27 1273.87 1251.8 1273.87 1252.86 1273.87 1253.15 1273.77 1253.58 1273.57 1254.15L1270.74 1265.51 1276.68 1265.51C1277.18 1265.51 1277.52 1265.52 1277.72 1265.54 1277.92 1265.57 1278.1 1265.64 1278.28 1265.76 1278.45 1265.88 1278.54 1266.09 1278.54 1266.38 1278.54 1267.01 1278.38 1267.4 1278.06 1267.55 1277.74 1267.7 1277.21 1267.77 1276.47 1267.77L1270.18 1267.77 1264.89 1288.97C1264.6 1290.42 1264.45 1291.73 1264.45 1292.92 1264.45 1295.04 1265.1 1296.09 1266.41 1296.09 1268.25 1296.09 1269.88 1295.17 1271.31 1293.34 1272.74 1291.5 1273.89 1289.45 1274.76 1287.18 1275.05 1286.5 1275.25 1286.1 1275.37 1285.98 1275.5 1285.86 1275.77 1285.8 1276.21 1285.8 1276.93 1285.8 1277.3 1286.04 1277.3 1286.53 1277.3 1286.68 1277.15 1287.11 1276.86 1287.84 1276.57 1288.57 1276.11 1289.51 1275.47 1290.65 1274.84 1291.8 1274.11 1292.89 1273.28 1293.94 1272.46 1294.99 1271.41 1295.89 1270.14 1296.64 1268.88 1297.39 1267.56 1297.77 1266.2 1297.77 1264.35 1297.77 1262.86 1297.13 1261.71 1295.86 1260.57 1294.58 1260 1293.01 1260 1291.14 1260 1290.48 1260.12 1289.67 1260.36 1288.72L1265.59 1267.77 1259.83 1267.77C1259.35 1267.77 1259.01 1267.76 1258.82 1267.73 1258.63 1267.71 1258.45 1267.63 1258.28 1267.51 1258.11 1267.39 1258.03 1267.18 1258.03 1266.89 1258.03 1266.26 1258.18 1265.87 1258.49 1265.72 1258.8 1265.58 1259.32 1265.51 1260.04 1265.51L1266.15 1265.51 1269.05 1253.9C1269.54 1252.15 1270.48 1251.27 1271.9 1251.27Z" fill="#FFFFFF" fill-rule="evenodd"/><text fill="#000000" fill-opacity="0" font-family="Arial,Arial_MSFontService,sans-serif" font-size="46.501" x="1258.03" y="1291.96">t</text><path d="M1320.01 1258.35C1320.17 1258.35 1320.55 1258.5 1321.17 1258.79L1353.29 1277.04C1354.43 1277.77 1355.01 1278.33 1355.01 1278.72 1355.01 1279.11 1354.38 1279.62 1353.11 1280.25L1312.49 1298.28C1311.16 1298.82 1310.42 1299.09 1310.26 1299.09 1309.67 1299.09 1309.38 1298.84 1309.38 1298.36 1309.38 1297.92 1309.92 1297.5 1310.99 1297.11 1311.16 1297.04 1311.3 1296.98 1311.39 1296.94L1348.2 1280.6C1348.55 1280.44 1349.01 1280.24 1349.56 1279.99 1350.12 1279.75 1350.65 1279.51 1351.16 1279.28 1351.67 1279.06 1352.15 1278.84 1352.6 1278.65L1352.6 1278.57C1352.11 1278.32 1350.44 1277.38 1347.59 1275.73L1320.48 1260.32C1319.65 1259.88 1319.24 1259.45 1319.24 1259.01 1319.24 1258.57 1319.49 1258.35 1320.01 1258.35Z" fill="#FFFFFF" fill-rule="evenodd"/><text fill="#000000" fill-opacity="0" font-family="Arial,Arial_MSFontService,sans-serif" font-size="40.7339" x="1309.38" y="1293.99">&gt;</text><path d="M1398.45 1264.7C1399.81 1264.7 1401.07 1265.13 1402.21 1265.99 1403.35 1266.85 1404.12 1268.18 1404.51 1269.99 1407.04 1266.47 1409.98 1264.7 1413.34 1264.7 1415.08 1264.7 1416.73 1265.06 1418.3 1265.77 1419.86 1266.48 1420.64 1267.67 1420.64 1269.34 1420.64 1270.59 1420.24 1271.55 1419.45 1272.2 1418.65 1272.85 1417.83 1273.17 1416.98 1273.17 1416.08 1273.17 1415.42 1272.93 1415 1272.45 1414.58 1271.97 1414.36 1271.44 1414.36 1270.86 1414.36 1270.62 1414.41 1270.32 1414.51 1269.96 1414.61 1269.6 1414.89 1269.14 1415.34 1268.58 1415.78 1268.03 1416.41 1267.63 1417.2 1267.39 1416.21 1266.72 1414.9 1266.38 1413.27 1266.38 1412.1 1266.38 1410.97 1266.69 1409.87 1267.32 1408.78 1267.95 1407.88 1268.65 1407.17 1269.43 1406.47 1270.22 1405.82 1271.1 1405.24 1272.09 1404.66 1273.07 1404.27 1273.79 1404.07 1274.23 1403.88 1274.68 1403.73 1275.02 1403.63 1275.24L1398.89 1294.52C1398.45 1296.69 1397.5 1297.77 1396.04 1297.77 1395.36 1297.77 1394.85 1297.58 1394.51 1297.19 1394.17 1296.8 1394 1296.36 1394 1295.87 1394 1295.63 1394.07 1295.29 1394.22 1294.85L1399.69 1272.95C1400.03 1271.6 1400.2 1270.38 1400.2 1269.27 1400.2 1267.34 1399.57 1266.38 1398.3 1266.38 1397.23 1266.38 1396.32 1267.11 1395.57 1268.56 1394.81 1270.01 1394.07 1272.16 1393.34 1275.01 1393.15 1275.78 1392.99 1276.25 1392.87 1276.42 1392.74 1276.59 1392.44 1276.67 1391.95 1276.67 1391.22 1276.67 1390.86 1276.43 1390.86 1275.94 1390.86 1275.85 1390.96 1275.42 1391.15 1274.67 1391.34 1273.91 1391.64 1272.93 1392.03 1271.71 1392.42 1270.49 1392.8 1269.45 1393.19 1268.57 1394.56 1265.99 1396.31 1264.7 1398.45 1264.7Z" fill="#FFFFFF" fill-rule="evenodd"/><text fill="#000000" fill-opacity="0" font-family="Arial,Arial_MSFontService,sans-serif" font-size="33.069" x="1390.86" y="1293.64">r</text><text fill="#FFFFFF" font-family="CMU Serif,CMU Serif_MSFontService,sans-serif" font-weight="700" font-size="124" transform="matrix(1 0 0 1 808.289 1064)">C</text><text fill="#FFFFFF" font-family="CMU Serif,CMU Serif_MSFontService,sans-serif" font-weight="700" font-size="124" transform="matrix(1 0 0 1 804.852 1380)">D</text><text fill="#FFFFFF" font-family="CMU Serif,CMU Serif_MSFontService,sans-serif" font-style="italic" font-weight="400" font-size="73" transform="matrix(1 0 0 1 1119.24 1639)">Bajo estado de derecho </text><text fill="#FFFFFF" font-family="Latin Modern Math,Latin Modern Math_MSFontService,sans-serif" font-style="oblique" font-weight="700" font-size="73" transform="matrix(1 0 0 1 1400.79 1727)">c</text><text fill="#FFFFFF" font-family="Cambria Math,Cambria Math_MSFontService,sans-serif" font-weight="400" font-size="73" transform="matrix(1 0 0 1 1455.54 1727)">≫</text><text fill="#FFFFFF" font-family="Cambria Math,Cambria Math_MSFontService,sans-serif" font-weight="400" font-size="73" transform="matrix(1 0 0 1 1541.23 1727)">0</text><text fill="#FFFFFF" font-family="CMU Serif,CMU Serif_MSFontService,sans-serif" font-weight="700" font-size="124" transform="matrix(1 0 0 1 803.993 1696)">H</text><text fill="#FFFFFF" font-family="CMU Serif,CMU Serif_MSFontService,sans-serif" font-style="italic" font-weight="400" font-size="64" transform="matrix(1 0 0 1 1100.68 1958)">Bajos</text><text fill="#FFFFFF" font-family="CMU Serif,CMU Serif_MSFontService,sans-serif" font-style="italic" font-weight="400" font-size="64" transform="matrix(1 0 0 1 1280 1958)">c</text><text fill="#FFFFFF" font-family="CMU Serif,CMU Serif_MSFontService,sans-serif" font-style="italic" font-weight="400" font-size="64" transform="matrix(1 0 0 1 1309.8 1958)">astigos para personas corruptas </text><text fill="#FFFFFF" font-family="CMU Serif,CMU Serif_MSFontService,sans-serif" font-style="italic" font-weight="700" font-size="64" transform="matrix(1 0 0 1 1562.73 2032)">p</text><text fill="#FFFFFF" font-family="CMU Serif,CMU Serif_MSFontService,sans-serif" font-style="italic" font-weight="700" font-size="64" transform="matrix(1 0 0 1 1601.11 2032)"> </text><text fill="#FFFFFF" font-family="Latin Modern Math,Latin Modern Math_MSFontService,sans-serif" font-style="oblique" font-weight="700" font-size="64" transform="matrix(1 0 0 1 1627.47 2032)">&gt;</text><text fill="#FFFFFF" font-family="Latin Modern Math,Latin Modern Math_MSFontService,sans-serif" font-style="oblique" font-weight="700" font-size="64" transform="matrix(1 0 0 1 1679.03 2032)"> </text><text fill="#FFFFFF" font-family="CMU Serif,CMU Serif_MSFontService,sans-serif" font-style="italic" font-weight="700" font-size="64" transform="matrix(1 0 0 1 1701.95 2032)">q</text><text fill="#FFFFFF" font-family="CMU Serif,CMU Serif_MSFontService,sans-serif" font-weight="700" font-size="124" transform="matrix(1 0 0 1 803.706 2012)">K</text></g></svg>
